X: 37553
T: Slow Train
R: hornpipe
M: 4/4
K: Dmajor
|:E~B2A BdFE|E~B2A dFEz|E~B2A BdFE|dBAd F~E2D:|
|:F2AB ceFE|Dedf BeAc|F2AB cfec|BAdD F~E2D:|
|:DAAF ABdA|DAFB AdFE|DAAF ABdA|BdAd F~E2z:|

